!!!OTL: Der Schlaftrunk
!!!ARE: Europa, Mitteleuropa, Deutschland
!!!SCT: A0344
!!!YEM: Copyright 1995, estate of Helmut Schaffrath.
**kern
*ICvox
*Ivox
*M4/2
*k[b-]
*F:
{1cc
=1
2cc
2cc
2dd
2cc
=2
1b-
2b-
2dd
=3
2cc
2a
2b-
2g
=4
1f}
{1cc
=5
2cc
2cc
2dd
2cc
=6
1b-
2b-
2dd
=7
2cc
2a
2b-
2g
=8
1f
2r}
{2b-
=9
2b-
2b-
1g
=10
2g
2a
2b-
2b-
=11
1g
2r}
{2a
=12
1f
2f
2f
=13
2g
2a
1g
=14
1f
2r}
{2ff
=15
2ff
2ee
1dd
=16
1cc
1a
=17
2b-
2cc
2dd
2b-
=18
1.a}
{2b-
=19
2b-
2b-
1g
=20
2g
2a
2b-
2b-
=21
1g
2r}
{2a
=22
1f
2f
2f
=23
2g
2a
1g
=24
1f
2r}
{2ff
=25
2ff
2ee
1dd
=26
1cc
1a
=27
2b-
2cc
2dd
2b-
=28
0a}
=29
{1cc
2cc
2a
=30
2b-
2a
1g
=31
1f}
==
!!!AGN: Romanze, Ballade, Lied, Trinklied
!! Freih. von Winnenbergs Reuterlieder. Strassburg 1582 No. 33.
!!!ONB: ESAC (Essen Associative Code) Database: ALTDEU
!!!AMT: simple quadruple
!!!AIN: vox
!!!EED: Helmut Schaffrath
!!!EEV: 1.0
*-
